icons/jinja.svg

<svg width="16" height="16" viewBox="0 0 16 16" fill="none" xmlns="http://www.w3.org/2000/svg">
<path fill-rule="evenodd" clip-rule="evenodd" d="M2 3.5V4.5C2.76151 4.60879 3.60824 4.67497 4.5 4.69546V6.16299C3.96624 6.12974 3.45964 6.07661 3 6V7C3.38626 7.09657 3.90307 7.17448 4.5 7.23014V10.5H3.5V9H2.5V13H3.5V11.5H4.5V13L5.5 13.008V11.508L7 11.477V12.977L8 13V11.5L9.5 11.477V12.977L10.5 13V11.5H11.5V13H12.5V9H11.5V10.5H10.5V6.9711C11.0969 6.84896 11.6137 6.69313 12 6.5V5.5C11.6592 5.61361 11.1377 5.72721 10.5 5.82909V4.04558C11.6031 3.78187 12.6293 3.43536 13.5 3V2C10 3.5 5 4 2 3.5ZM9.5 10.477V7.17207C8.37015 7.29042 6.62985 7.357 5.5 7.32554V10.508L7 10.477V8.97697L8 9V10.5L9.5 10.477ZM9.5 4.32406C8.34933 4.51496 6.65681 4.65745 5.5 4.69546V6.2151C6.6865 6.21561 8.41368 6.11223 9.5 6V4.32406Z" fill="#DC3E3E"/>
</svg>

<svg xmlns="http://www.w3.org/2000/svg" width="16" height="16" fill="none"><path fill="#DC3E3E" fill-rule="evenodd" d="M2 3.5v1c.762.109 1.608.175 2.5.195v1.468A14.839 14.839 0 0 1 3 6v1c.386.097.903.174 1.5.23v3.27h-1V9h-1v4h1v-1.5h1V13l1 .008v-1.5l1.5-.031v1.5L8 13v-1.5l1.5-.023v1.5l1 .023v-1.5h1V13h1V9h-1v1.5h-1V6.971c.597-.122 1.114-.278 1.5-.471v-1c-.34.114-.862.227-1.5.33V4.045c1.103-.264 2.13-.61 3-1.046V2C10 3.5 5 4 2 3.5Zm7.5 6.977V7.172c-1.13.118-2.87.185-4 .154v3.182l1.5-.031v-1.5L8 9v1.5l1.5-.023Zm0-6.153c-1.15.191-2.843.333-4 .371v1.52c1.186 0 2.914-.103 4-.215V4.324Z" clip-rule="evenodd"/></svg>
